src/lib/images/svgs/logo-vercel.svg

<?xml version="1.0" encoding="UTF-8"?> <svg xmlns="http://www.w3.org/2000/svg" xmlns:xlink="http://www.w3.org/1999/xlink" width="64px" height="14px" viewBox="0 0 61 14" version="1.1"> <g id="surface1"> <path style=" stroke:none;fill-rule:nonzero;fill:rgb(100%,100%,100%);fill-opacity:1;" d="M 30.539062 3.554688 C 28.160156 3.554688 26.445312 5.128906 26.445312 7.492188 C 26.445312 9.855469 28.375 11.429688 30.753906 11.429688 C 32.191406 11.429688 33.460938 10.851562 34.242188 9.878906 L 32.59375 8.910156 C 32.160156 9.394531 31.496094 9.675781 30.753906 9.675781 C 29.722656 9.675781 28.84375 9.128906 28.519531 8.253906 L 34.558594 8.253906 C 34.605469 8.011719 34.632812 7.757812 34.632812 7.488281 C 34.632812 5.128906 32.917969 3.554688 30.539062 3.554688 Z M 28.5 6.726562 C 28.769531 5.855469 29.507812 5.304688 30.535156 5.304688 C 31.570312 5.304688 32.304688 5.855469 32.574219 6.726562 Z M 53.75 3.554688 C 51.371094 3.554688 49.652344 5.128906 49.652344 7.492188 C 49.652344 9.855469 51.585938 11.429688 53.964844 11.429688 C 55.402344 11.429688 56.667969 10.851562 57.453125 9.878906 L 55.804688 8.910156 C 55.371094 9.394531 54.707031 9.675781 53.964844 9.675781 C 52.933594 9.675781 52.054688 9.128906 51.730469 8.253906 L 57.769531 8.253906 C 57.816406 8.011719 57.84375 7.757812 57.84375 7.488281 C 57.84375 5.128906 56.128906 3.554688 53.75 3.554688 Z M 51.710938 6.726562 C 51.980469 5.855469 52.71875 5.304688 53.75 5.304688 C 54.78125 5.304688 55.519531 5.855469 55.785156 6.726562 Z M 43.300781 7.492188 C 43.300781 8.804688 44.144531 9.679688 45.453125 9.679688 C 46.34375 9.679688 47.007812 9.269531 47.351562 8.601562 L 49.007812 9.574219 C 48.320312 10.730469 47.035156 11.429688 45.453125 11.429688 C 43.074219 11.429688 41.359375 9.855469 41.359375 7.492188 C 41.359375 5.128906 43.074219 3.554688 45.453125 3.554688 C 47.035156 3.554688 48.320312 4.253906 49.007812 5.410156 L 47.351562 6.382812 C 47.007812 5.714844 46.34375 5.304688 45.453125 5.304688 C 44.144531 5.304688 43.300781 6.179688 43.300781 7.492188 Z M 61.078125 1.148438 L 61.078125 11.210938 L 59.136719 11.210938 L 59.136719 1.148438 Z M 8.101562 0.0546875 L 16.066406 14.054688 L 0.136719 14.054688 Z M 28.015625 1.148438 L 22.042969 11.648438 L 16.070312 1.148438 L 18.308594 1.148438 L 22.042969 7.710938 L 25.773438 1.148438 Z M 40.710938 3.773438 L 40.710938 5.894531 C 40.496094 5.828125 40.269531 5.785156 40.023438 5.785156 C 38.769531 5.785156 37.867188 6.660156 37.867188 7.972656 L 37.867188 11.210938 L 35.925781 11.210938 L 35.925781 3.773438 L 37.867188 3.773438 L 37.867188 5.785156 C 37.867188 4.675781 39.140625 3.773438 40.710938 3.773438 Z M 40.710938 3.773438 "/> </g> </svg>

<svg xmlns="http://www.w3.org/2000/svg" width="64" height="14" viewBox="0 0 61 14"><path d="M30.54 3.555c-2.38 0-4.095 1.574-4.095 3.937 0 2.363 1.93 3.938 4.309 3.938 1.437 0 2.707-.578 3.488-1.551l-1.648-.969c-.434.485-1.098.766-1.84.766-1.031 0-1.91-.547-2.234-1.422h6.039c.046-.242.074-.496.074-.766 0-2.36-1.715-3.933-4.094-3.933ZM28.5 6.727c.27-.872 1.008-1.422 2.035-1.422 1.035 0 1.77.55 2.04 1.422Zm25.25-3.172c-2.379 0-4.098 1.574-4.098 3.937 0 2.363 1.934 3.938 4.313 3.938 1.437 0 2.703-.578 3.488-1.551l-1.648-.969c-.434.485-1.098.766-1.84.766-1.031 0-1.91-.547-2.235-1.422h6.04c.046-.242.074-.496.074-.766 0-2.36-1.715-3.933-4.094-3.933Zm-2.04 3.172c.27-.872 1.009-1.422 2.04-1.422 1.031 0 1.77.55 2.035 1.422Zm-8.41.765c0 1.313.845 2.188 2.153 2.188.89 0 1.555-.41 1.899-1.078l1.656.972c-.688 1.156-1.973 1.856-3.555 1.856-2.379 0-4.094-1.575-4.094-3.938 0-2.363 1.715-3.937 4.094-3.937 1.582 0 2.867.699 3.555 1.855l-1.656.973c-.344-.668-1.008-1.078-1.899-1.078-1.308 0-2.152.875-2.152 2.187Zm17.778-6.344v10.063h-1.941V1.148ZM8.102.055l7.964 14H.136Zm19.914 1.093-5.973 10.5-5.973-10.5h2.239l3.734 6.563 3.73-6.563ZM40.71 3.773v2.122a2.304 2.304 0 0 0-.688-.11c-1.253 0-2.156.875-2.156 2.188v3.238h-1.941V3.773h1.941v2.012c0-1.11 1.274-2.012 2.844-2.012Zm0 0" style="stroke:none;fill-rule:nonzero;fill:#fff;fill-opacity:1"/></svg>
